X:1
T:Title
%%score { ( 1 4 ) | ( 2 3 ) }
L:1/8
Q:1/4=100
M:4/4
K:C
V:1 treble nm="Grand Piano"
V:4 treble 
V:2 bass 
V:3 bass 
V:1
 [CEc]>[CEB] [CEA]>[EG] [G,CE^F]2 [G,CEG]2 | z2 [CEG]4 z2 | C>D [CE]>F [EG]2 [CEA]2 | [B,FB]6 z2 | %4
w: Adam~Geibel * * * * *||||
 [CEc]>[CEB] [CEA]>[EG] [G,CE^F]2 [G,CEG]2 | z2 [CEG]4 z2 | [B,EG]>G ^F>E [B,_EB]2 [B,EB]2 | %7
w: |||
 [G,B,E]6 z2 | G2 e2 d3 B | [Ed]>[Ec] [_EB]>[EA] [=EG]2 z2 | G2 e2 d3 B | %11
w: ||||
 [Ed]>[Ec] [_EB]>[EA] [=EG]2 z2 | [FA]>^G A>B [Ac]2 [A,CFA]2 | [Ec]2 [G,CEG]2 [G,C]2 [G,CE]2 | %14
w: |||
 [B,FA]2 [G,B,FG]2[K:bass] G,,2 D2 | A2 G2[K:bass] G,2 C,2 | A>^G A>B [Ac]2 [Ad]2 | %17
w: |||
[M:9/8] [^Ge]2 [Ge]- [Ge]2 [Ad]- [Ad] A2 |[M:4/4] c2 c2 c2 B2 | [Ec]6 z2 |] %20
w: |||
V:2
 [C,G,]2 z z/ C/ C,2 G,,2 | C,2 G,,2 C,2 G,,2 | [C,E,G,]2 [G,,G,]2 [C,G,C]2 [G,,G,]2 | %3
 [D,G,]2 G,,2 D,2 G,,2 | [C,G,]2 z z/ C/ C,2 G,,2 | C,2 G,,2 C,2 G,,2 | %6
 [B,,E,G,]2 [B,,E,G,]2 [B,,^F,A,]2 [B,,F,A,]2 | E,2 B,,2 E,,2 z2 | %8
 [G,B,F]2 [G,B,F]2 [G,B,F]3 [G,DF] | [C,C]>[C,G,] [C,^F,]>[C,C] [C,C]2 z2 | %10
 [G,B,F]2 [G,B,F]2 [G,B,F]3 [G,DF] | [C,C]>[C,G,] [C,^F,]>[C,C] [C,C]2 z2 | %12
 z z/[K:treble] E/ F>G[K:bass] F,,2 F,2 | C,2 E,2 E,2 E,2 | G,,2 D,2 z2 [G,B,]2 | %15
 [C,C]2 [E,CE]2 z4 | [F,CF]>[F,CE] [F,CF]>[F,CF] [F,A,]2 [F,A,]2 | %17
[M:9/8] [E,B,]2 [E,B,]- [E,B,]2 [F,D]- [F,D] [F,D]2 | %18
[M:4/4][K:treble] [G,EG]2 [G,_E^F]2 [G,D=F]2 [G,DF]2 | [C,G,C]6 z2 |] %20
V:3
 z2 [G,,G,]2 z4 | x8 | x8 | x8 | z2 [G,,G,]2 z4 | x8 | x8 | x8 | x8 | x8 | x8 | x8 | %12
 F,,2[K:treble] [F,A,C]2[K:bass] z4 | x8 | x8 | x8 | x8 |[M:9/8] x9 |[M:4/4][K:treble] x8 | x8 |] %20
V:4
 x8 | [G,CE]2 G,2 G,2 G,2 | x8 | z2 G,2 G,2 G,2 | x8 | [G,CE]2 G,2 G,2 G,2 | x8 | x8 | x8 | x8 | %10
 x8 | x8 | x8 | x8 | x4[K:bass] x4 | x4[K:bass] x4 | x8 |[M:9/8] x9 |[M:4/4] x8 | x8 |] %20

